images_sukapura_svg/res/savemodified_large.svg

<svg viewBox="0 0 24 24" xmlns="http://www.w3.org/2000/svg" xmlns:xlink="http://www.w3.org/1999/xlink"><linearGradient id="a" gradientUnits="userSpaceOnUse" x1="13" x2="13" y1="21" y2="15"><stop offset="0" stop-color="#dadada"/><stop offset=".5" stop-color="#fff"/><stop offset="1" stop-color="#fff"/></linearGradient><linearGradient id="b" gradientUnits="userSpaceOnUse" x1="4" x2="4" y1="18" y2="3"><stop offset="0" stop-color="#4f4f4f"/><stop offset=".80000001" stop-color="#4f4f4f" stop-opacity=".498039"/><stop offset="1" stop-color="#b7b7b7"/></linearGradient><filter id="c" color-interpolation-filters="sRGB" height="1.082452" width="2.278" x="-.639" y="-.041226"><feGaussianBlur stdDeviation=".26625"/></filter><linearGradient id="d" gradientUnits="userSpaceOnUse" x1="21" x2="21" y1="20" y2="3"><stop offset="0" stop-color="#4f4f4f"/><stop offset=".88235295" stop-color="#4f4f4f" stop-opacity=".498039"/><stop offset="1" stop-color="#b7b7b7"/></linearGradient><filter id="e" color-interpolation-filters="sRGB" height="1.071" width="2.278" x="-.639" y="-.0355"><feGaussianBlur stdDeviation=".26625"/></filter><filter id="f" color-interpolation-filters="sRGB" height="1.168" width="1.126" x="-.063" y="-.084"><feGaussianBlur stdDeviation=".1575"/></filter><g fill="#fff"><rect height="8" ry="1" width="16" x="4" y="3"/><path d="m8 15c-.554 0-1 .446-1 1v4c0 .554.446 1 1 1h2v-5h2v5h5c.554 0 1-.446 1-1v-4c0-.554-.446-1-1-1z"/></g><path d="m4 2c-.554 0-1 .446-1 1v15l3 4h12.167969a3.0067284 3.0067284 0 0 1 -.173828-1 3.0067284 3.0067284 0 0 1 3.005859-3.005859 3.0067284 3.0067284 0 0 1 1 .173828v-15.167969c0-.554-.446-1-1-1z" fill="#3e3e3e"/><g fill="#fff"><rect height="8" ry=".46741" width="13" x="6" y="3"/><path d="m8 15c-.554 0-1 .446-1 1v4c0 .554.446 1 1 1h2v-5h2v5h5c.554 0 1-.446 1-1v-4c0-.554-.446-1-1-1z" fill="url(#a)"/></g><rect fill="url(#b)" filter="url(#c)" height="15.5" rx=".351695" width="1" x="3.5" y="3"/><path d="m10 16h2v.5h-2z" fill="#2a2a2a"/><path d="m20 3v15.167969a3.0067284 3.0067284 0 0 1 1-.173828v-14.994141z" fill="url(#d)" filter="url(#e)"/><path d="m4.5 12h15.5v4.5c-.332428-1.585337-1.430373-1.690577-3-2.5h-12.5z" fill="#3b3b3b" filter="url(#f)"/><path d="m8 3h9v1h-9z" fill="#0a84ff"/><path d="m8 6h9v1h-9z" fill="#bababa"/><path d="m8 8h9v1h-9z" fill="#bababa"/><circle cx="21" cy="21" fill="#ff9f0a" r="2"/></svg>

<?xml version="1.0" encoding="UTF-8" standalone="no"?>
<svg
   xmlns:dc="http://purl.org/dc/elements/1.1/"
   xmlns:cc="http://creativecommons.org/ns#"
   xmlns:rdf="http://www.w3.org/1999/02/22-rdf-syntax-ns#"
   xmlns:svg="http://www.w3.org/2000/svg"
   xmlns="http://www.w3.org/2000/svg"
   xmlns:xlink="http://www.w3.org/1999/xlink"
   xmlns:sodipodi="http://sodipodi.sourceforge.net/DTD/sodipodi-0.dtd"
   xmlns:inkscape="http://www.inkscape.org/namespaces/inkscape"
   viewBox="0 0 24 24"
   version="1.1"
   id="svg12"
   sodipodi:docname="savemodified_large.svg"
   inkscape:version="0.92.3 (unknown)"
   inkscape:export-filename="/home/rizmut/Dokumen/Rizmut/Github/libreoffice-style-colibrex/images_colibrex/res/savemodified_large.png"
   inkscape:export-xdpi="96"
   inkscape:export-ydpi="96">
  <metadata
     id="metadata18">
    <rdf:RDF>
      <cc:Work
         rdf:about="">
        <dc:format>image/svg+xml</dc:format>
        <dc:type
           rdf:resource="http://purl.org/dc/dcmitype/StillImage" />
      </cc:Work>
    </rdf:RDF>
  </metadata>
  <defs
     id="defs16">
    <linearGradient
       inkscape:collect="always"
       xlink:href="#linearGradient830"
       id="linearGradient832"
       x1="13"
       y1="21"
       x2="13"
       y2="15"
       gradientUnits="userSpaceOnUse" />
    <linearGradient
       inkscape:collect="always"
       id="linearGradient830">
      <stop
         style="stop-color:#dadada;stop-opacity:1"
         offset="0"
         id="stop826" />
      <stop
         id="stop834"
         offset="0.5"
         style="stop-color:#ffffff;stop-opacity:1;" />
      <stop
         style="stop-color:#ffffff;stop-opacity:1"
         offset="1"
         id="stop828" />
    </linearGradient>
    <linearGradient
       inkscape:collect="always"
       xlink:href="#linearGradient936"
       id="linearGradient938"
       x1="4"
       y1="18"
       x2="4"
       y2="3"
       gradientUnits="userSpaceOnUse" />
    <linearGradient
       inkscape:collect="always"
       id="linearGradient936">
      <stop
         style="stop-color:#4f4f4f;stop-opacity:1;"
         offset="0"
         id="stop932" />
      <stop
         id="stop940"
         offset="0.80000001"
         style="stop-color:#4f4f4f;stop-opacity:0.49803922;" />
      <stop
         style="stop-color:#b7b7b7;stop-opacity:1"
         offset="1"
         id="stop934" />
    </linearGradient>
    <filter
       inkscape:collect="always"
       style="color-interpolation-filters:sRGB"
       id="filter893"
       x="-0.639"
       width="2.2780001"
       y="-0.041225806"
       height="1.0824516">
      <feGaussianBlur
         inkscape:collect="always"
         stdDeviation="0.26625"
         id="feGaussianBlur895" />
    </filter>
    <linearGradient
       inkscape:collect="always"
       xlink:href="#linearGradient956"
       id="linearGradient948"
       x1="21"
       y1="20"
       x2="21"
       y2="3"
       gradientUnits="userSpaceOnUse" />
    <linearGradient
       id="linearGradient956"
       inkscape:collect="always">
      <stop
         id="stop950"
         offset="0"
         style="stop-color:#4f4f4f;stop-opacity:1;" />
      <stop
         style="stop-color:#4f4f4f;stop-opacity:0.49803922;"
         offset="0.88235295"
         id="stop952" />
      <stop
         id="stop954"
         offset="1"
         style="stop-color:#b7b7b7;stop-opacity:1" />
    </linearGradient>
    <filter
       inkscape:collect="always"
       style="color-interpolation-filters:sRGB"
       id="filter897"
       x="-0.639"
       width="2.2780001"
       y="-0.035500001"
       height="1.071">
      <feGaussianBlur
         inkscape:collect="always"
         stdDeviation="0.26625"
         id="feGaussianBlur899" />
    </filter>
    <filter
       inkscape:collect="always"
       style="color-interpolation-filters:sRGB"
       id="filter928"
       x="-0.063000001"
       width="1.126"
       y="-0.083999999"
       height="1.168">
      <feGaussianBlur
         inkscape:collect="always"
         stdDeviation="0.1575"
         id="feGaussianBlur930" />
    </filter>
  </defs>
  <sodipodi:namedview
     pagecolor="#ffffff"
     bordercolor="#666666"
     borderopacity="1"
     objecttolerance="10"
     gridtolerance="10"
     guidetolerance="10"
     inkscape:pageopacity="0"
     inkscape:pageshadow="2"
     inkscape:window-width="1366"
     inkscape:window-height="706"
     id="namedview14"
     showgrid="true"
     inkscape:zoom="9.8333333"
     inkscape:cx="-18.935418"
     inkscape:cy="-0.2624112"
     inkscape:window-x="0"
     inkscape:window-y="0"
     inkscape:window-maximized="1"
     inkscape:current-layer="svg12">
    <inkscape:grid
       type="xygrid"
       id="grid2093" />
  </sodipodi:namedview>
  <g
     fill="#fff"
     id="g8">
    <rect
       height="8"
       ry="1"
       width="16"
       x="4"
       y="3"
       id="rect4" />
    <path
       d="m8 15c-.554 0-1 .446-1 1v4c0 .554.446 1 1 1h2v-5h2v5h5c .554 0 1-.446 1-1v-4c0-.554-.446-1-1-1z"
       id="path6" />
  </g>
  <g
     id="g1423">
    <path
       style="fill:#3e3e3e;fill-opacity:1"
       d="M 4 2 C 3.446 2 3 2.446 3 3 L 3 18 L 6 22 L 18.167969 22 A 3.0067284 3.0067284 0 0 1 17.994141 21 A 3.0067284 3.0067284 0 0 1 21 17.994141 A 3.0067284 3.0067284 0 0 1 22 18.167969 L 22 3 C 22 2.446 21.554 2 21 2 L 4 2 z "
       id="rect2" />
    <g
       style="fill:#ffffff"
       id="g8-3">
      <rect
         height="8"
         ry="0.46740958"
         width="13"
         x="6"
         y="3"
         id="rect4-6" />
      <path
         inkscape:connector-curvature="0"
         d="m 8,15 c -0.554,0 -1,0.446 -1,1 v 4 c 0,0.554 0.446,1 1,1 h 2 v -5 h 2 v 5 h 5 c 0.554,0 1,-0.446 1,-1 v -4 c 0,-0.554 -0.446,-1 -1,-1 z"
         id="path6-7"
         style="fill:url(#linearGradient832);fill-opacity:1" />
    </g>
    <rect
       style="opacity:1;fill:url(#linearGradient938);fill-opacity:1;stroke:none;stroke-width:1;stroke-linecap:square;stroke-linejoin:round;stroke-miterlimit:4;stroke-dasharray:none;stroke-dashoffset:0;stroke-opacity:1;filter:url(#filter893)"
       id="rect847"
       width="1"
       height="15.5"
       x="3.5"
       y="3"
       rx="0.35169491" />
    <rect
       style="opacity:1;fill:#2a2a2a;fill-opacity:1;stroke:none;stroke-width:1;stroke-linecap:square;stroke-linejoin:round;stroke-miterlimit:4;stroke-dasharray:none;stroke-dashoffset:0;stroke-opacity:1"
       id="rect865"
       width="2"
       height="0.5"
       x="10"
       y="16"
       rx="0" />
    <path
       style="opacity:1;fill:url(#linearGradient948);fill-opacity:1;stroke:none;stroke-width:1;stroke-linecap:square;stroke-linejoin:round;stroke-miterlimit:4;stroke-dasharray:none;stroke-dashoffset:0;stroke-opacity:1;filter:url(#filter897)"
       d="M 20 3 L 20 18.167969 A 3.0067284 3.0067284 0 0 1 21 17.994141 L 21 3 L 20 3 z "
       id="rect867" />
    <path
       style="opacity:1;fill:#3b3b3b;fill-opacity:1;stroke:none;stroke-width:1;stroke-linecap:square;stroke-linejoin:round;stroke-miterlimit:4;stroke-dasharray:none;stroke-dashoffset:0;stroke-opacity:1;filter:url(#filter928)"
       d="M 4.5,12 H 20 v 4.5 C 19.667572,14.914663 18.569627,14.809423 17,14 H 4.5 Z"
       id="rect901"
       inkscape:connector-curvature="0"
       sodipodi:nodetypes="cccccc" />
    <rect
       style="opacity:1;fill:#0a84ff;fill-opacity:1;stroke:none;stroke-width:1;stroke-linecap:square;stroke-linejoin:round;stroke-miterlimit:4;stroke-dasharray:none;stroke-dashoffset:0;stroke-opacity:1"
       id="rect958"
       width="9"
       height="1"
       x="8"
       y="3" />
    <rect
       style="opacity:1;fill:#bababa;fill-opacity:1;stroke:none;stroke-width:1;stroke-linecap:square;stroke-linejoin:round;stroke-miterlimit:4;stroke-dasharray:none;stroke-dashoffset:0;stroke-opacity:1"
       id="rect1511"
       width="9"
       height="1"
       x="8"
       y="6" />
    <rect
       style="opacity:1;fill:#bababa;fill-opacity:1;stroke:none;stroke-width:1;stroke-linecap:square;stroke-linejoin:round;stroke-miterlimit:4;stroke-dasharray:none;stroke-dashoffset:0;stroke-opacity:1"
       id="rect1513"
       width="9"
       height="1"
       x="8"
       y="8" />
  </g>
  <circle
     cx="21"
     cy="21"
     fill="#eac282"
     r="2"
     id="circle10"
     style="fill:#ff9f0a;fill-opacity:1" />
</svg>
